X: 21035
T: Jump At The Sun
R: jig
M: 6/8
K: Dminor
|:DFA ^G2A|DFA ^G2A|dAA dAA|BAG FGE|
DFA ^G2A|DFA ^G2A|dAA BAG|1 FGE D2E:|2 FGE D2A||
|:d2e g2e|def gfe|d2e g2e|A^GA B2A|
d2e g2e|def gfe|dAA BAG|1 FGE D2A:|2 FGE D2E||

